build/img/9-resources/file.svg

<svg width="40" height="40" viewBox="0 0 40 40" fill="none" xmlns="http://www.w3.org/2000/svg">
<path d="M29.6602 13.3074C29.2287 13.3074 28.8789 12.9576 28.8789 12.5262V7.18408C28.8789 6.75268 29.2287 6.40283 29.6602 6.40283C30.0916 6.40283 30.4414 6.75268 30.4414 7.18408V12.5262C30.4414 12.9576 30.0916 13.3074 29.6602 13.3074Z" fill="#333333"/>
<path d="M29.6567 5.45166C30.0882 5.45166 30.438 5.10188 30.438 4.67041C30.438 4.23894 30.0882 3.88916 29.6567 3.88916C29.2253 3.88916 28.8755 4.23894 28.8755 4.67041C28.8755 5.10188 29.2253 5.45166 29.6567 5.45166Z" fill="#333333"/>
<path d="M37.863 8.20758C37.863 3.68187 34.1818 0 29.6569 0C27.7841 0 26.0558 0.630781 24.6731 1.69109H4.97992C3.41219 1.69109 2.13672 2.96648 2.13672 4.5343V32.9541C2.13672 34.5218 3.41219 35.7973 4.97992 35.7973H7.45891V37.1567C7.45891 38.7245 8.73438 40 10.3021 40H30.7287C32.2965 40 33.572 38.7245 33.572 37.1567V26.3206C33.572 25.8892 33.2221 25.5394 32.7907 25.5394C32.3593 25.5394 32.0095 25.8892 32.0095 26.3206V37.1567C32.0095 37.8629 31.4349 38.4375 30.7287 38.4375H10.3021C9.59594 38.4375 9.02141 37.863 9.02141 37.1567V35.7973H25.4066C26.9744 35.7973 28.2499 34.5219 28.2499 32.9541V16.2944C28.7073 16.3737 29.1773 16.4152 29.657 16.4152C30.4743 16.4152 31.2641 16.295 32.0095 16.0715V19.2573C32.0095 19.6887 32.3594 20.0385 32.7908 20.0385C33.2222 20.0385 33.572 19.6887 33.572 19.2573V15.4194C36.1261 14.0267 37.863 11.3162 37.863 8.20758ZM26.6874 32.9541C26.6874 33.6603 26.1129 34.2349 25.4066 34.2349H4.97992C4.27375 34.2349 3.69922 33.6604 3.69922 32.9541V4.5343C3.69922 3.82813 4.27375 3.25359 4.97992 3.25359H23.1183C22.1377 4.54523 21.5303 6.13508 21.4583 7.86094H8.1543C7.72289 7.86094 7.37305 8.21078 7.37305 8.64219V11.9417C7.37305 12.3731 7.72289 12.723 8.1543 12.723H22.2323C22.4098 12.723 22.5736 12.6637 22.7048 12.5638C23.6381 14.0485 25.0334 15.2147 26.6874 15.8591V32.9541ZM21.451 9.42344V11.1605H8.93555V9.42344H21.451ZM29.6569 14.8526C25.9937 14.8526 23.0135 11.8716 23.0135 8.2075C23.0135 4.54344 25.9937 1.56242 29.6569 1.56242C33.3202 1.56242 36.3005 4.54336 36.3005 8.2075C36.3005 11.8716 33.3202 14.8526 29.6569 14.8526Z" fill="#333333"/>
<path d="M32.7903 23.556C32.4684 23.556 32.1733 23.35 32.0599 23.0496C31.9434 22.7413 32.0388 22.3788 32.295 22.1703C32.5516 21.9615 32.9211 21.9364 33.2026 22.1111C33.4835 22.2854 33.6273 22.6294 33.5513 22.952C33.469 23.3009 33.1493 23.556 32.7903 23.556Z" fill="#333333"/>
<path d="M22.2323 17.0029H8.1543C7.72289 17.0029 7.37305 16.6532 7.37305 16.2217C7.37305 15.7903 7.72289 15.4404 8.1543 15.4404H22.2323C22.6637 15.4404 23.0135 15.7903 23.0135 16.2217C23.0135 16.6531 22.6638 17.0029 22.2323 17.0029Z" fill="#333333"/>
<path d="M22.2323 20.7085H8.1543C7.72289 20.7085 7.37305 20.3586 7.37305 19.9272C7.37305 19.4958 7.72289 19.146 8.1543 19.146H22.2323C22.6637 19.146 23.0135 19.4958 23.0135 19.9272C23.0135 20.3586 22.6638 20.7085 22.2323 20.7085Z" fill="#333333"/>
<path d="M22.2323 24.4141H8.1543C7.72289 24.4141 7.37305 24.0642 7.37305 23.6328C7.37305 23.2014 7.72289 22.8516 8.1543 22.8516H22.2323C22.6637 22.8516 23.0135 23.2014 23.0135 23.6328C23.0135 24.0643 22.6638 24.4141 22.2323 24.4141Z" fill="#333333"/>
<path d="M22.2323 28.1191H8.1543C7.72289 28.1191 7.37305 27.7693 7.37305 27.3379C7.37305 26.9064 7.72289 26.5566 8.1543 26.5566H22.2323C22.6637 26.5566 23.0135 26.9064 23.0135 27.3379C23.0135 27.7693 22.6638 28.1191 22.2323 28.1191Z" fill="#333333"/>
</svg>

<svg width="40" height="40" fill="none" xmlns="http://www.w3.org/2000/svg"><path d="M29.66 13.307a.781.781 0 01-.781-.78V7.183a.781.781 0 011.562 0v5.342c0 .432-.35.781-.78.781zM29.657 5.452a.781.781 0 100-1.563.781.781 0 000 1.563z" fill="#333"/><path d="M37.863 8.208C37.863 3.682 34.182 0 29.657 0c-1.873 0-3.601.63-4.984 1.691H4.98a2.846 2.846 0 00-2.843 2.843v28.42a2.846 2.846 0 002.843 2.843h2.479v1.36A2.846 2.846 0 0010.302 40H30.73a2.847 2.847 0 002.843-2.843V26.32a.781.781 0 00-1.563 0v10.836c0 .706-.574 1.28-1.28 1.28H10.302c-.706 0-1.28-.574-1.28-1.28v-1.36h16.385a2.846 2.846 0 002.843-2.843v-16.66a8.231 8.231 0 003.76-.223v3.186a.781.781 0 001.562 0V15.42a8.215 8.215 0 004.291-7.211zM26.687 32.954c0 .706-.574 1.28-1.28 1.28H4.98c-.706 0-1.28-.574-1.28-1.28V4.534c0-.706.574-1.28 1.28-1.28h18.138a8.165 8.165 0 00-1.66 4.607H8.154a.781.781 0 00-.78.781v3.3c0 .431.349.781.78.781h14.078c.178 0 .342-.06.473-.16a8.254 8.254 0 003.982 3.296v17.095zm-5.236-23.53v1.737H8.936V9.423H21.45zm8.206 5.429a6.652 6.652 0 01-6.643-6.646 6.652 6.652 0 016.643-6.645A6.652 6.652 0 0136.3 8.207a6.652 6.652 0 01-6.643 6.646z" fill="#333"/><path d="M32.79 23.556a.789.789 0 01-.73-.506.788.788 0 01.235-.88.79.79 0 01.908-.059c.28.174.424.518.348.841a.79.79 0 01-.76.604zM22.232 17.003H8.154a.781.781 0 110-1.563h14.078a.781.781 0 010 1.563zM22.232 20.709H8.154a.781.781 0 010-1.563h14.078a.781.781 0 010 1.563zM22.232 24.414H8.154a.781.781 0 010-1.562h14.078a.781.781 0 010 1.562zM22.232 28.12H8.154a.781.781 0 010-1.563h14.078a.781.781 0 010 1.562z" fill="#333"/></svg>
